common/src/main/resources/icons/nodes/cvs_global.svg

<svg xmlns="http://www.w3.org/2000/svg" width="16" height="16" fill="#FFC107" data-big="true" viewBox="0 0 24 24"><path d="m12 20 .76-3c-3.26-.21-6.17-1.6-7.01-3.42-.09.48-.22.92-.42 1.25C4.67 16 3.33 16 2 16c1.1 0 1.5-1.57 1.5-3.5S3.1 9 2 9c1.33 0 2.67 0 3.33 1.17.2.33.33.77.42 1.25.65-1.42 2.57-2.57 4.91-3.1L9 5c2 0 4 0 5.33.67 1.13.56 1.78 1.6 2.36 2.71 2.92.7 5.31 2.28 5.31 4.12 0 1.88-2.5 3.5-5.5 4.16-.83 1.1-1.64 2.12-2.33 2.67-.84.67-1.5.67-2.17.67m5-9a1 1 0 0 0-1 1 1 1 0 0 0 1 1 1 1 0 0 0 1-1 1 1 0 0 0-1-1"/></svg>

<!--
  - The MIT License (MIT)
  -
  - Copyright (c) 2015-2024 Elior "Mallowigi" Boukhobza
  -
  - Permission is hereby granted, free of charge, to any person obtaining a copy
  - of this software and associated documentation files (the "Software"), to deal
  - in the Software without restriction, including without limitation the rights
  - to use, copy, modify, merge, publish, distribute, sublicense, and/or sell
  - copies of the Software, and to permit persons to whom the Software is
  - furnished to do so, subject to the following conditions:
  -
  - The above copyright notice and this permission notice shall be included in all
  - copies or substantial portions of the Software.
  -
  - THE SOFTWARE IS PROVIDED "AS IS", WITHOUT WARRANTY OF ANY KIND, EXPRESS OR
  - IMPLIED, INCLUDING BUT NOT LIMITED TO THE WARRANTIES OF MERCHANTABILITY,
  - FITNESS FOR A PARTICULAR PURPOSE AND NONINFRINGEMENT. IN NO EVENT SHALL THE
  - AUTHORS OR COPYRIGHT HOLDERS BE LIABLE FOR ANY CLAIM, DAMAGES OR OTHER
  - LIABILITY, WHETHER IN AN ACTION OF CONTRACT, TORT OR OTHERWISE, ARISING FROM,
  - OUT OF OR IN CONNECTION WITH THE SOFTWARE OR THE USE OR OTHER DEALINGS IN THE
  - SOFTWARE.
  -->


<svg data-big="true" xmlns="http://www.w3.org/2000/svg" version="1.1" width="16px" height="16px" fill="#FFC107"
     viewBox="0 0 24 24">
  <path
    d="M12,20L12.76,17C9.5,16.79 6.59,15.4 5.75,13.58C5.66,14.06 5.53,14.5 5.33,14.83C4.67,16 3.33,16 2,16C3.1,16 3.5,14.43 3.5,12.5C3.5,10.57 3.1,9 2,9C3.33,9 4.67,9 5.33,10.17C5.53,10.5 5.66,10.94 5.75,11.42C6.4,10 8.32,8.85 10.66,8.32L9,5C11,5 13,5 14.33,5.67C15.46,6.23 16.11,7.27 16.69,8.38C19.61,9.08 22,10.66 22,12.5C22,14.38 19.5,16 16.5,16.66C15.67,17.76 14.86,18.78 14.17,19.33C13.33,20 12.67,20 12,20M17,11A1,1 0 0,0 16,12A1,1 0 0,0 17,13A1,1 0 0,0 18,12A1,1 0 0,0 17,11Z"/>
</svg>
